X:43
T:Pile menu
C:trad.
A:Bretagne
O:France
M:2/4
L:1/8
Q:1/8=220
K:F
A|AG FA|AG AA/2A/2|GG FA/2A/2|AG A:|
|:F/2F/2|FG A2|cA GF/2F/2|EF GA/2B/2|AG F:||
